src/icons/0204_autoText_a_48.svg

<svg data-name="Idea 1 copy" xmlns="http://www.w3.org/2000/svg" viewBox="0 0 48 48"><path d="M35 35H2a2 2 0 01-2-2V17a2 2 0 012-2h33v2.5H2.5v15H35zm11-20h-4v2.5h3.5v15H42V35h4a2 2 0 002-2V17a2 2 0 00-2-2zm-2 25h-4V10h4V7H33v3h4v30h-4v3h11v-3zM8 24a3 3 0 103 3 3 3 0 00-3-3z"/></svg>

<svg id="Idea_1_copy" data-name="Idea 1 copy" xmlns="http://www.w3.org/2000/svg" viewBox="0 0 48 48"><path d="M35,35H2a2,2,0,0,1-2-2V17a2,2,0,0,1,2-2H35v2.5H2.5v15H35ZM46,15H42v2.5h3.5v15H42V35h4a2,2,0,0,0,2-2V17A2,2,0,0,0,46,15ZM44,40H40V10h4V7H33v3h4V40H33v3H44V40ZM8,24a3,3,0,1,0,3,3A3,3,0,0,0,8,24Z"/></svg>
